X:7500
T:I've been roaming. CJF.158
M:C
L:1/8
Q:80
S: C.J.Fox MS, 1829/33, Beverley,E.Yorks.
R:Air
O:England
A:East Yorkshire
B:Kidson Coll.Mitchell Lib.M1805
Z:P J Headford 2000
K:G
(gf)|(g3/2 d/)z/(cB) (AG) (gf)|(gd)(cB) (BA)(cB)|(ed)(gf) (fe)(ed)|dccBA
2gf|!gd cB AG gf|
gdcBc2cB|edfg a/ d/hz cB|BAGFG2BA|!Add>^c cBed|cAagf2ed|^cdfd 
 Befg|fed^cd2gf|!gd cB AG gf|gdcBc2cB|edef adcB|BAGFG2B>B|!Befg gffe|
e^defB2cB|Befg gecc|Bbafe2gf|!gd cB AG gf|gdcBc2cB|edfg adcB|
BAGFG2gf|!gGBd dccc|de^fge2ag|g^fed gdec|BdcAG2Bc|!d=fedc2cd|
egfe^d2de|fagf agfe|dBcAg2fe|!dBcA bhgfe|hd2f/e/d/c/ B/A/G2||


